src/catppuccin-macchiato-light-cursors/crosshair_24.svg

<?xml version="1.0" encoding="UTF-8" standalone="no"?>
<svg
   id="svg5327"
   width="24"
   height="24"
   version="1.1"
   sodipodi:docname="crosshair_24.svg"
   inkscape:version="1.1.2 (0a00cf5339, 2022-02-04)"
   xmlns:inkscape="http://www.inkscape.org/namespaces/inkscape"
   xmlns:sodipodi="http://sodipodi.sourceforge.net/DTD/sodipodi-0.dtd"
   xmlns="http://www.w3.org/2000/svg"
   xmlns:svg="http://www.w3.org/2000/svg">
  <sodipodi:namedview
     id="namedview11"
     pagecolor="#ffffff"
     bordercolor="#666666"
     borderopacity="1.0"
     inkscape:pageshadow="2"
     inkscape:pageopacity="0.0"
     inkscape:pagecheckerboard="0"
     showgrid="false"
     inkscape:zoom="32.3"
     inkscape:cx="15.975232"
     inkscape:cy="11.052632"
     inkscape:window-width="1896"
     inkscape:window-height="1020"
     inkscape:window-x="9"
     inkscape:window-y="45"
     inkscape:window-maximized="1"
     inkscape:current-layer="svg5327">
    <inkscape:grid
       type="xygrid"
       id="grid1180" />
  </sodipodi:namedview>
  <defs
     id="defs5329">
    <filter
       id="filter852"
       style="color-interpolation-filters:sRGB"
       width="1.12"
       height="1.12"
       x="-0.059999999"
       y="-0.059999999">
      <feGaussianBlur
         id="feGaussianBlur854"
         stdDeviation=".575" />
    </filter>
    <filter
       id="filter818"
       style="color-interpolation-filters:sRGB"
       width="1.1440001"
       height="1.1440001"
       x="-0.071999997"
       y="-0.071999997">
      <feGaussianBlur
         id="feGaussianBlur820"
         stdDeviation=".69" />
    </filter>
    <filter
       inkscape:collect="always"
       style="color-interpolation-filters:sRGB"
       id="filter12681"
       x="-0.023520001"
       y="-0.023520001"
       width="1.04704"
       height="1.04704">
      <feGaussianBlur
         inkscape:collect="always"
         stdDeviation="0.1666"
         id="feGaussianBlur12683" />
    </filter>
  </defs>
  <path
     id="path12558"
     style="color:#000000;opacity:0.1;fill:#000000;fill-opacity:1;stroke-linecap:round;stroke-linejoin:round;-inkscape-stroke:none;filter:url(#filter12681)"
     d="M 11.5 3.5 A 1.0001 1.0001 0 0 0 10.5 4.5 L 10.5 9.5 A 1.0001 1.0001 0 0 0 9.5 10.5 L 4.5 10.5 A 1.0001 1.0001 0 0 0 3.5 11.5 L 3.5 12.5 A 1.0001 1.0001 0 0 0 4.5 13.5 L 9.5 13.5 A 1.0001 1.0001 0 0 0 10.5 14.5 L 10.5 19.5 A 1.0001 1.0001 0 0 0 11.5 20.5 L 12.5 20.5 A 1.0001 1.0001 0 0 0 13.5 19.5 L 13.5 14.5 A 1.0001 1.0001 0 0 0 14.5 13.5 L 19.5 13.5 A 1.0001 1.0001 0 0 0 20.5 12.5 L 20.5 11.5 A 1.0001 1.0001 0 0 0 19.5 10.5 L 14.5 10.5 A 1.0001 1.0001 0 0 0 13.5 9.5 L 13.5 4.5 A 1.0001 1.0001 0 0 0 12.5 3.5 L 11.5 3.5 z M 10 10 L 13 10 L 13 13 L 10 13 L 10 10 z " />
  <path
     id="path1457"
     style="color:#000000;fill:#1e1e28;stroke-linecap:round;stroke-linejoin:round;-inkscape-stroke:none;fill-opacity:1"
     d="M 11 3 A 1.0001 1.0001 0 0 0 10 4 L 10 9 A 1.0001 1.0001 0 0 0 9 10 L 4 10 A 1.0001 1.0001 0 0 0 3 11 L 3 12 A 1.0001 1.0001 0 0 0 4 13 L 9 13 A 1.0001 1.0001 0 0 0 10 14 L 10 19 A 1.0001 1.0001 0 0 0 11 20 L 12 20 A 1.0001 1.0001 0 0 0 13 19 L 13 14 A 1.0001 1.0001 0 0 0 14 13 L 19 13 A 1.0001 1.0001 0 0 0 20 12 L 20 11 A 1.0001 1.0001 0 0 0 19 10 L 14 10 A 1.0001 1.0001 0 0 0 13 9 L 13 4 A 1.0001 1.0001 0 0 0 12 3 L 11 3 z M 11 11 L 12 11 L 12 12 L 11 12 L 11 11 z " />
  <path
     id="rect817"
     style="fill:#CAD3F5;fill-opacity:1;stroke:none;stroke-width:1.46385;stroke-linecap:round;stroke-linejoin:round;stroke-miterlimit:4;stroke-dasharray:none;stroke-opacity:1"
     d="M 11 4 L 11 10 L 10 10 L 10 11 L 4 11 L 4 12 L 10 12 L 10 13 L 11 13 L 11 19 L 12 19 L 12 13 L 13 13 L 13 12 L 19 12 L 19 11 L 13 11 L 13 10 L 12 10 L 12 4 L 11 4 z M 11 11 L 12 11 L 12 12 L 11 12 L 11 11 z " />
</svg>

<svg xmlns="http://www.w3.org/2000/svg" width="24" height="24">
    <defs>
        <filter id="a" width="1.047" height="1.047" x="-.024" y="-.024" style="color-interpolation-filters:sRGB">
            <feGaussianBlur stdDeviation=".167"/>
        </filter>
    </defs>
    <path d="M11.5 3.5a1 1 0 0 0-1 1v5a1 1 0 0 0-1 1h-5a1 1 0 0 0-1 1v1a1 1 0 0 0 1 1h5a1 1 0 0 0 1 1v5a1 1 0 0 0 1 1h1a1 1 0 0 0 1-1v-5a1 1 0 0 0 1-1h5a1 1 0 0 0 1-1v-1a1 1 0 0 0-1-1h-5a1 1 0 0 0-1-1v-5a1 1 0 0 0-1-1zM10 10h3v3h-3z" style="color:#000;opacity:.1;fill:#000;fill-opacity:1;stroke-linecap:round;stroke-linejoin:round;-inkscape-stroke:none;filter:url(#a)"/>
    <path d="M11 3a1 1 0 0 0-1 1v5a1 1 0 0 0-1 1H4a1 1 0 0 0-1 1v1a1 1 0 0 0 1 1h5a1 1 0 0 0 1 1v5a1 1 0 0 0 1 1h1a1 1 0 0 0 1-1v-5a1 1 0 0 0 1-1h5a1 1 0 0 0 1-1v-1a1 1 0 0 0-1-1h-5a1 1 0 0 0-1-1V4a1 1 0 0 0-1-1zm0 8h1v1h-1z" style="color:#000;fill:#1e1e28;stroke-linecap:round;stroke-linejoin:round;-inkscape-stroke:none;fill-opacity:1"/>
    <path d="M11 4v6h-1v1H4v1h6v1h1v6h1v-6h1v-1h6v-1h-6v-1h-1V4zm0 7h1v1h-1z" style="fill:#cad3f5;fill-opacity:1;stroke:none;stroke-width:1.46385;stroke-linecap:round;stroke-linejoin:round;stroke-miterlimit:4;stroke-dasharray:none;stroke-opacity:1"/>
</svg>
